!!!ONB: MCCC : IFS0820_01 : Extracted Monophonic Melody
!!!COM: Schubert, Franz
!!!OPR: Violin Sonata (No.1) in D major
!!!OMV: 1
!!!SCT: D.384 (published as Op.posth.137 No.1)
!!!ODT: 1816///
**kern
*staff1
=1
*clefG2
*k[f#c#]
*D:
*M4/4
2d
2f#
=2
2.a
8f#
8d
=3
4c#
4d
4d#
4e
=4
2A
2r
=5
2e
2g
=6
2.b
8g
8e
=7
4d
4e
4f
4f#
=8
2A
2r
=9
2f#
2a
=10
2.dd
8a
8f#
=11
4e
4g
4a#
4b
=12
2.A
8B
8c#
=13
2d
2f#
=14
2.a
8f#
8d
=15
4c#
4d
4d#
4e
=16
2A
2r
=17
2e
2g
=18
2.b
8g
8e
=19
4d#
4e
4f
4f#
=20
2B
2r
=21
2g
2b
=22
2.dd
8b
8g
=23
2f#
2a
=24
2.dd
8a
8f#
=25
2e
2g
=26
2.b
8cc#
8dd
=27
4e
4f#
4g
4g#
=28
2.a
4c#
=29
2d
2f#
=30
2a[
8a]
8f#
8g
8a
=31
8b
8g
8a
8b
8cc#
8a
8b
8cc#
=32
8dd
8b
8cc#
8dd
8ee
8cc#
8dd
8ee
=33
2ff
2aa
=34
2.ccc
8aa
8ff
=35
8ee
8dd#
4dd#
4dd#
4dd#
=36
2ee
2r
=37
1r
=38
2b
4dd
4ff#
=39
2.ee
8cc#
8b
=40
2a
4cc#
4ee
=41
2.ff#
8dd
8cc#
=42
2b
4dd
4ff#
=43
2.ee
8cc#
8b
=44
2a
2r
=45
1r
=46
1r
=47
1r
=48
1r
=49
2r
4r
8a
8cc#
=50
4ee
4r
4r
8dd
8cc#
=51
4b
4r
4r
8b
8dd
=52
4ff#
4r
4r
8ee
8dd
=53
4cc#
4r
4r
8cc#
8ee
=54
2aa
2bb
=55
2ccc#
8bb
8aa
8gg#
8ff#
=56
4ee
4ee
4ee
4ee
=57
2ee
4cc#
4r
=58
4r
4e
4e
4r
=59
4r
4e
4e
4r
=60
4r
4e
4e
4r
=61
4r
4e
4e
4r
=62
2dd
2dd#
=63
2ee
2r
=64
4r
4dd
4cc#
4b
=65
2a
2r
=66
2A
2c#
=67
2.e
8c#
8B
=68
2A
4c#
4e
=69
2.g
8f#
8e
=70
2d#
2f#
=71
2.cc
8b
8a
=72
2g#
2b
=73
2.ff
8ee
8dd
=74
2cc#
2ee
=75
2.aa#
8aa
8gg
=76
2ff
2aa
=77
2ddd[
8ddd]
8aa
8ff
8dd
=78
4a
4g
4g
4g
=79
4g
4g
4g
4g
=80
4f
4f
4f
4f
=81
4f
4f
4f
4f
=82
4e
4cc#
4ee
4gg
=83
2.aa#
8gg
8ee
=84
2cc
4ee
4gg
=85
2.aa#
8gg
8ee
=86
2b
4ee
4gg
=87
2.bb
8gg
8ee
=88
2cc
4ee
4gg
=89
2.ccc
8gg
8ee
=90
2cc#
4ee
4gg
=91
2ccc#[
8ccc#]
8gg
8ee
8cc#
=92
2dd
4ff
4bb
=93
2ddd[
8ddd]
8bb
8ff
8dd
=94
1aa
=95
1aa#
=96
1gg##
=97
1aa#
=98
2aa
2gg
=99
2ee
2cc#
=100
2a
2g
=101
2e
2c#
=102
2d
2f#
=103
2.a
8f#
8d
=104
4c#
4d
4d#
4e
=105
2A
2r
=106
2e
2g
=107
2.b
8g
8e
=108
4d
4e
4f
4f#
=109
2A
2r
=110
2f#
2a
=111
2.dd
8a
8f#
=112
4e
4g
4a#
4b
=113
2.A
8B
8c#
=114
2d
2f
=115
2.a
8f
8e
=116
4c#
4d
4d#
4e
=117
2A
2r
=118
2f
2a
=119
2.cc
8a
8f
=120
4e
4f
4f#
4g
=121
2c
2r
=122
2g
2a#
=123
2.dd
8a#
8g
=124
4f#
4g
4g#
4a
=125
2d
2r
=126
2a#
2dd
=127
2.ff
8dd
8a#
=128
2a
2cc
=129
2.ff#
8cc
8a
=130
2g
2a#
=131
2.ee
8ff#
8gg
=132
4a
4b
4cc
4cc#
=133
2.dd
4f#
=134
2g
2B
=135
2d[
8d]
8B
8c
8d
=136
8e
8c
8d
8e
8f#
8d
8e
8f#
=137
8g
8e
8f#
8g
8a
8f#
8g
8a
=138
2a#
2dd
=139
2.ff
8dd
8a#
=140
8a
8g#
4g#
4g#
4g#
=141
2a
2r
=142
1r
=143
2ee
4gg
4bb
=144
2.aa
8ff#
8ee
=145
2dd
4ff#
4aa
=146
2.bb
8gg
8ff#
=147
2ee
4gg
4bb
=148
2.aa
8ff#
8ee
=149
2dd
2r
=150
1r
=151
1r
=152
1r
=153
1r
=154
2r
4r
8dd
8ff#
=155
4aa
4r
4r
8gg
8ff#
=156
4ee
4r
4r
8ee
8gg
=157
4bb
4r
4r
8aa
8gg
=158
4ff#
4r
4r
8f#
8a
=159
2dd
2ee
=160
2ff#
8ee
8dd
8cc#
8b
=161
4a
4a
4a
4a
=162
2a
4f#
4r
=163
4r
4f#
4f#
4r
=164
4r
4g
4g
4r
=165
4r
4g
4g
4r
=166
4r
4f#
4f#
4r
=167
2g
2g#
=168
2a
2r
=169
4r
4g
4f#
4e
=170
2d
2r
=171
2d
2f#
=172
2.a
8g
8f#
=173
2e
2g
=174
2.b
8a
8g
=175
2f#
2a
=176
2.dd
8a
8f#
=177
4e
4g
4a#
4b
=178
2.A
8B
8c#
=179
2d
2ddd
=180
2ddd
2r
==
*-
